X: 304
T:Fines amouretes ai
C:Adam de la Halle
F:https://gallica.bnf.fr/ark:/12148/btv1b6001348v/f72.item
F:https://archive.org/details/oeuvrescompltes00cousgoog/page/n296
Z:Ali Corbin <ali.corbin:gmail.com>
N: (condensed)
M:3/4
L:1/4
Q:1/4=120
K:D dorian
%
%%MIDI program 1       41 %viola
%%MIDI program 2       42 %cello
%%MIDI program 3       69 %englhorn
V:1 clef=treble
V:2 clef=treble_8
V:3 clef=treble_8
%
[V:1] F2 (3F/E/D/| C2  (3:2:2D/E  |^F2        G   |      A2    (3A/G/F/|      E2      F |(3:2:2E/DE  F  |(GF)      E    | F3 ||
[V:2] C2   B,    | C2        C    | B,2       B,  |(3:2:2A,/G,A, B,    |(3:2:2A,/G,A, F,|      A,2   A, | G,2      G,   | F,3||
[V:3] F,2  G,    | F,2 (3:2:2G,/A,| B,2 (3:2:2C/B,|      A,2     G,    |(3:2:2A,/B,A, C |      A,2   C  | D2  (3:2:2C/B,| C3 ||
w:    Fin- es      a-        mou-*  re-       tes*       ai;    Dieu          si**    ne       sai Quant les      ver-*  rai.
%
[V:1] F2  D | F2    (3E/D/C/ | D3             | D2 (3:2:2E/F |(ED)  E       | F2 (3E/D/C/| D2  (3:2:2E/F  | E2 (3:2:2D/E  |
[V:2] C2  B,| C2      C      | B,2 (3:2:2A,/G,| A,2      B,  | C2 (3C/B,/A,/| C2   C     | B,2 (3:2:2A,/G,| A,2      B,   |
[V:3] F,2 G,| F,2     A,     | G,2 (3:2:2A,/B,| A,2      G,  | F,2  G,      | F,2  A,    | G,2 (3:2:2A,/B,| A,2      G,   |
w:    Or man- de-    rai       m'a-     mi-*    et-      te    Qui  est     cointe et      jo-       li-*   et-      te
w:    Et s'ele est   de        moi      en-*  chain-     te    Tost de-       ven- ra      pale      et*    tein-    te;
w:  Miex vaut que    je        m'en     as-*  teing-     ne,   Pour li        jo-  li      me        ti-*   eng-     ne,
[V:1]  F2         (3F/E/D/| C2  (3:2:2D/E  |^F2        G    | A2 (3A/G/F/| E2            F |(3:2:2E/D E2 | F3  |(GF)      E   | F3  ||
[V:2]  C (3C/B,/A,/ B,    | C2        C    | B,2 (3:2:2A,/G,| A,2  B,    |(3:2:2A,/G, A, F,|      A,3    | A,3 | G,2      G,  | F,3 ||
[V:3]  F,2          G,    | F,2 (3:2:2G,/A,| B,2 (3:2:2C/B, | A,2  G,    |(3:2:2A,/B, A, C |      A,3    | C3  | D2 (3:2:2C/B,| C3  ||
w:     Et          s'est    si       sa-*    vé-    rou-*     se-  te,     C'as-*    te-nir       ne      m'en   po-**          rai. 
w:     S'il         en      est      es-*   clan-   dèle et   plain-te      Dé-*    shon-ne-      ré-      e     l'a-**         rai. 
w:     Et          que      de       li*     me     sou-*     vieng-ne,     Car*    s'on-nour     le      gar-   de-**          rai. 
%%newpage
W:Fines amouretes ai;                % I am done with love 
W:Dieu si ne sai                     % God! If only I knew 
W:Quant les verrai.                  % When I will see her 
W:
W:Or manderai m'amiette              % But I will send for my love 
W:Qui est cointe et joliette         % Who is quiet and gay 
W:Et s'est si savérousete,           % And is so savory 
W:C'astenir ne m'en porai.           % That I won't be able to hold off from her 
W:
W:Fines amouretes ai; 
W:Dieu si ne sai 
W:Quant les verrai.
W:
W:Et s'ele est de moi enchainte      % And if she is delighted with me 
W:Tost devenra pale et teinte;       % Soon she'll become pale and blush 
W:S'il en est esclandèle et plainte  % If it is of her ??? and lamenting 
W:Déshonnerée l'arai.                % I will dishonor her 
W:
W:Fines amouretes ai;
W:Dieu si ne sai 
W:Quant les verrai.
W:
W:Miex vaut que je m'en asteingne,   % It is better I reach her 
W:Pour li joli me tiengne,           % For ? pretty I would blush 
W:Et que de li me souviengne,        % And that I would remember her 
W:Car s'onnour le garderai.          % For I will guard her honor 
W:
W:Fines amouretes ai; 
W:Dieu si ne sai 
W:Quant les verrai.


